X:1
T:Tavoy, LM
T:Tavoy, LM
T:Harmonia Sacra, by Joseph Funk, 1851
T:Public Domain Courtesy of the Cyber Hymnal™
C:Harmonia Sacra, by Joseph Funk, 1851
Z:Public Domain
Z:Courtesy of the Cyber Hymnal™
%%score 1 ( 2 3 )
L:1/8
Q:1/4=130
M:3/2
K:F
V:1 treble 
V:2 bass 
V:3 bass 
V:1
 [CF]4 | [CF]2 [CF]2 [DF]4 [DF]4 | [CF]2 [CE]2 !fermata![CF]4 [CF]4 | [EG]2 [EG]2 [FA]4 [Cc]4 | %4
 [Dc]2 [D=B]2 !fermata![Ec]4 [Fc]4 | [Fd]2 [Fd]2 [Fc]4 [FA]4 | [EB]2 [FA]2 !fermata![EG]4 [GB]4 | %7
 [FA]2 [FA]2 [DG]4 [DG]4 | [CF]2 [CE]2 !fermata![CF]4 |] %9
V:2
 [F,A,]4 | [F,A,]2 [F,A,]2 [B,,B,]4 [B,,B,]4 | [C,A,]2 [C,C]2 !fermata![F,,F,C]4 [F,A,]4 | %3
 [C,B,]2 [C,G,]2 F,4 A,4 | G,2 G,2 !fermata![C,G,]4 [F,A,]4 | [B,,A,]2 [D,A,]2 [F,A,]4 [F,C]4 | %6
 [G,C]2 [F,A,]2 !fermata![C,G,]4 [E,C]4 | [F,C]2 [A,,A,]2 [B,,B,]4 [B,,D]4 | %8
 [C,C]2 [C,B,]2 !fermata![F,A,]4 |] %9
V:3
 x4 | x12 | x12 | x4 F,4 A,4 | G,2 G,2 x8 | x12 | x12 | x12 | x8 |] %9

